X: 10189
T: Dinny O'Brien's
R: reel
M: 4/4
K: Dmixolydian
de|fd^cd ABBA|dcAB cAGE|D2FD ADFD|FGAB cdeg|
fd^cd ABBA|dcAB cAGE|D2FD ADFA|cAGE D2 de||
fdd^c defg|ad (3ddd Adfd|ec~c2 cdef|g2fa gfeg|
fd^cd ABBA|dcAB cAGE|D2FD ADFA|cAGE D2 de||

